X:1
T: Jackson's Fancy
C:
R:Jig
Q:180
K:D
M:6/8
L:1/16
F2|D2F2A2 d2e2f2|e2d2c2 d2A2F2|D2F2A2 d2A2F2|F2E2E2 E2F2E2|D2F2A2 d2e2f2|e2d2c2 d2A2F2|D2F2A2 d2e2g2|f2d2d2 d4F2|
D2F2A2 d2e2f2|e2d2c2 d2A2F2|D2F2A2 d2A2F2|F2E2E2 E2F2E2|D2F2A2 d2e2f2|e2d2c2 d2A2F2|D2F2A2 d2e2g2|f2d2d2 d4d2|
f2e2d2 f2a2f2|g2b2g2 f2a2g2|f2e2d2 f2a2f2|g2e2e2 e2a2g2|f2e2d2 f2a2f2|g2b2g2 f2a2g2|f2e2d2 A2a2g2|f2d2d2 d4d2|
f2e2d2 f2a2f2|g2b2g2 f2a2g2|f2e2d2 f2a2f2|g2e2e2 e2a2g2|f2e2d2 f2a2f2|g2b2g2 f2a2g2|f2e2d2 A2a2g2|f2d2d2 d4||
